!! J.S. Bach, Die Kunst der Fuge; Fuga V in d minor; BWV 1080.
!! Encoded from "Bach; Die Kunst der Fuge", (Carl Czerny, ed.)
!! New York: C.F. Peters Co., pp.14-15; in four voices.
!! Performance duration: 4:06; performance tempo: 87.8 quarter-notes per minute.
!! (Davitt Moroney, harpsichord, "Bach, 'Die Kunst der Fuge'",
!! Harmonia Mundi No. HMC 1169.70)
!! NOTE: The number of voices increases to five at bar 86, and expands to six 
!!       voices at bar 88.
**kern	**kern	**kern	**kern
*d:	*d:	*d:	*d:
*M4/4	*M4/4	*M4/4	*M4/4
*MM87.8	*MM87.8	*MM87.8	*MM87.8
=1	=1	=1	=1
1r	1r	2a	1r
.	.	4.d	.
.	.	8e	.
=2	=2	=2	=2
1r	1r	4.f	1r
.	.	8g	.
.	.	2a	.
=3	=3	=3	=3
1r	1r	2b-	1r
.	.	4.a	.
.	.	8g	.
=4	=4	=4	=4
2D	1r	[2f	1r
4.A	.	8f]	.
.	.	8e	.
.	.	8f	.
8G	.	8g	.
=5	=5	=5	=5
4.F	1r	8a	1r
.	.	8b-	.
.	.	[4cc	.
8E	.	.	.
2D	.	8cc]	.
.	.	8b-	.
.	.	8a	.
.	.	8b-	.
=6	=6	=6	=6
2C#	1r	8e	1r
.	.	8f	.
.	.	[4g	.
4.D	.	8g]	.
.	.	8a	.
.	.	8f	.
8E	.	8g	.
=7	=7	=7	=7
[2F	1r	8a	2dd
.	.	8g	.
.	.	8f	.
.	.	8e	.
8F]	.	8d	4.aa
8G	.	8Bn	.
8F	.	4c#	.
8E	.	.	8gg
=8	=8	=8	=8
8D	1r	[2d	4.ff
8F	.	.	.
8G	.	.	.
8A	.	.	8ee
2B-	.	8d]	2dd
.	.	8e	.
.	.	8f	.
.	.	8g	.
=9	=9	=9	=9
4.A	1r	8a	2cc#
.	.	8e	.
.	.	[4a	.
8AA	.	.	.
4.BBn	.	8a]	4.dd
.	.	8d	.
.	.	4g	.
8C#	.	.	8ee
=10	=10	=10	=10
4.D	2d	8f	[2ff
.	.	8a	.
.	.	8bn	.
8E	.	8cc#	.
4F	4.A	8dd	8ff]
.	.	8a	8aa
4D	.	4dd	8gg
.	8Bn	.	8ff
=11	=11	=11	=11
[2A	4.c	2ccn	8ee
.	.	.	8gg#
.	.	.	8aa
.	8d	.	8bbn
8A]	2e	2r	[2ccc
8A	.	.	.
8B-	.	.	.
8c	.	.	.
=12	=12	=12	=12
2d	2f	2r	8ccc]
.	.	.	8ccc
.	.	.	8bb-
.	.	.	8aa
[2G	4.e	8r	[2bb-
.	.	8aa	.
.	.	8gg	.
.	8d	8ff	.
=13	=13	=13	=13
8G]	[2c#	[2ee	8bb-]
8G	.	.	8bb-
8F	.	.	8aa
8E	.	.	8gg
[2F	8c#]	8ee]	[2aa
.	8A	8gg	.
.	8Bn	8ff	.
.	8c#	8ee	.
=14	=14	=14	=14
8F]	[2d	2ff	4aa]
8F	.	.	.
8E	.	.	4bb-
8D	.	.	.
2E	8d]	[2ee	[2gg
.	8d	.	.
.	8c#	.	.
.	8Bn	.	.
=15	=15	=15	=15
[1A	4c#	8ee]	2.gg]
.	.	8a	.
.	8d	8bn	.
.	8e	8cc#	.
.	8f	8dd	.
.	8e	8a	.
.	8f	[4dd	4ff
.	8g	.	.
=16	=16	=16	=16
2A_	4a	8dd]	2ee
.	.	8dd	.
.	4e	8cc#	.
.	.	8bn	.
8A]	2a	2cc#	2r
8B-	.	.	.
8A	.	.	.
8G	.	.	.
=17	=17	=17	=17
2.F	1r	8r	2dd
.	.	8A	.
.	.	8Bn	.
.	.	8c#	.
.	.	8d	4.a
.	.	8e	.
4D	.	[4f	.
.	.	.	8bn
=18	=18	=18	=18
4A	1r	8f]	4.cc
.	.	8g	.
4F	.	[4a	.
.	.	.	8dd
[2c	.	8a]	2ee
.	.	8g	.
.	.	8f	.
.	.	8e	.
=19	=19	=19	=19
8c]	1r	4d	2ff
8c	.	.	.
8Bn	.	[4dd	.
8A	.	.	.
2G#	.	8dd]	4.ee
.	.	8dd	.
.	.	8cc	.
.	.	8bn	8dd
=20	=20	=20	=20
[2A	2A	8a	[2cc
.	.	8e	.
.	.	8f#	.
.	.	8g#	.
8A]	4.e	[2a	8cc]
8Gn	.	.	8bn
4Fn	.	.	8cc
.	8d	.	8dd
=21	=21	=21	=21
[1E	4.c	8a]	4ee
.	.	8g#	.
.	.	8a	[4dd#
.	8Bn	8bn	.
.	2A	2cc	8dd#]
.	.	.	8ff#
.	.	.	8ee
.	.	.	8dd#
=22	=22	=22	=22
2E]	2G#	[2bn	8ee
.	.	.	8ddn
.	.	.	8cc
.	.	.	8bn
2r	4.A	8b]	4.cc
.	.	8b	.
.	.	8a	.
.	8Bn	8g#	8b
=23	=23	=23	=23
2A	[2c	8a	[2a
.	.	8gn	.
.	.	8f	.
.	.	8e	.
4.D	8c]	4.f	8a]
.	8d	.	8b-
.	8c	.	8a
8E	8B-	8g	8g
=24	=24	=24	=24
4.F	2A	4c	8a
.	.	.	8cc
.	.	4r	8dd
8G	.	.	8ee
2A	8r	2r	8ff
.	8e	.	8gg
.	8d	.	[4aa
.	8c#	.	.
=25	=25	=25	=25
2B-	[2d	1r	8aa]
.	.	.	8gg
.	.	.	8ff
.	.	.	8ee
4.A	8d]	.	8ff
.	8c#	.	8ee
.	4e	.	8dd
8G	.	.	8cc#
=26	=26	=26	=26
[2F	2.A	2d	8dd
.	.	.	8a
.	.	.	8bn
.	.	.	8cc#
8F]	.	4.a	[2dd
8E	.	.	.
8F	[4d	.	.
8G	.	8g	.
=27	=27	=27	=27
2A	4.d]	4.f	8dd]
.	.	.	8ccn
.	.	.	8b-
.	8c	8e	8a
8r	[2B-	2d	[2g
8A	.	.	.
8G	.	.	.
8F	.	.	.
=28	=28	=28	=28
2E	8B-]	2c#	2g_
.	8B-	.	.
.	8A	.	.
.	8G	.	.
[2D	4.A	4.d	8g]
.	.	.	8f
.	.	.	4b-
.	8G	8e	.
=29	=29	=29	=29
8D]	4A	[2f	4a
8D	.	.	.
8C	4B-	.	4r
8BB-	.	.	.
2AA	[2c	8f]	2r
.	.	8g	.
.	.	8f	.
.	.	8e-	.
=30	=30	=30	=30
[2BB-	8c]	[1d	1r
.	8B-	.	.
.	8A	.	.
.	8G	.	.
8BB-]	4F	.	.
8BB-	.	.	.
8AA	4G	.	.
8GG	.	.	.
=31	=31	=31	=31
2FF#	[2A	8d]	1r
.	.	8e-	.
.	.	8d	.
.	.	8c	.
[2GG	8A]	[2B-	.
.	8G	.	.
.	8Fn	.	.
.	8En	.	.
=32	=32	=32	=32
8GG]	4D	2B-_	1r
8GG	.	.	.
8FF	4E	.	.
8EE	.	.	.
4DD	4F	8B-]	.
.	.	8d	.
4EE	[4G	8c	.
.	.	8B-	.
=33	=33	=33	=33
2FF	8G]	4.A	2r
.	8G	.	.
.	2F	.	.
.	.	8a	.
4.C	.	8g	2cc
.	.	8f	.
.	4E	4g	.
8BB-	.	.	.
=34	=34	=34	=34
4.AA	8F	4c	4.f
.	8C	.	.
.	8D	4r	.
8GG	8E	.	8g
2FF	4F	8r	4.a
.	.	8f	.
.	4r	8e	.
.	.	8d	8b-
=35	=35	=35	=35
2EE	4r	8g	2cc
.	.	8a	.
.	8r	[4b-	.
.	8C	.	.
4.FF	4.F	8b-]	2dd
.	.	8a	.
.	.	4b-	.
8GG	8E	.	.
=36	=36	=36	=36
[2AA	8F	4a	4.cc
.	8A	.	.
.	[2.c	4e	.
.	.	.	8b-
8AA]	.	[2f	[2a
8BB-	.	.	.
8AA	.	.	.
8GG	.	.	.
=37	=37	=37	=37
[2FF	8c]	8f]	8a]
.	8B-	8e	8g
.	8A	8f	8a
.	8G	8g	8b-
8FF]	[2F	[2a	[2cc
8AA	.	.	.
8BB-	.	.	.
8C	.	.	.
=38	=38	=38	=38
[2D	8F]	8a]	8cc]
.	8E	8b-	8dd
.	8F	8a	8cc
.	8G	8g	8b-
8D]	4A	4f	4a
8E	.	.	.
8D	4r	4a	[4ff
8C	.	.	.
=39	=39	=39	=39
8BBn	1r	2g	4ff]
8D	.	.	.
8C	.	.	2ee
8BB	.	.	.
8AA	.	2f	.
8GG	.	.	.
8AA	.	.	[4dd
8BB	.	.	.
=40	=40	=40	=40
8C	1r	2e	4dd]
8D	.	.	.
8E	.	.	2cc
8F	.	.	.
8G	.	2d	.
8A	.	.	.
8G	.	.	[4b-
8F	.	.	.
=41	=41	=41	=41
8E	2c	4c	4.b-]
8C	.	.	.
2F	.	4r	.
.	.	.	8a
.	4.G	2g	8cc
.	.	.	8bn
4E-	.	.	4cc
.	8A	.	.
=42	=42	=42	=42
[1D	4.B-	4.dd	8f#
.	.	.	8d
.	.	.	[4g
.	8c	8cc	.
.	2d	4.b-	8g]
.	.	.	8gg
.	.	.	4ffn
.	.	8a	.
=43	=43	=43	=43
8D]	2e-	2g	4.b-
8GG	.	.	.
[4C	.	.	.
.	.	.	8a
8C]	4.d	2f#	4dd
8C	.	.	.
8BB-	.	.	4r
8AA	8c	.	.
=44	=44	=44	=44
8GG	[2B-	4.g	2r
8D	.	.	.
8E	.	.	.
8F#	.	8a	.
[2G	8B-]	[2b-	4r
.	8A	.	.
.	8B-	.	4dd
.	8c	.	.
=45	=45	=45	=45
4G]	[2d	8b-]	2.gg
.	.	8cc	.
4Fn	.	8b-	.
.	.	8a	.
[2E-	8d]	8g	.
.	8d	8b-	.
.	8c	8a	8ff
.	8B-	8g	8ee-
=46	=46	=46	=46
8E-]	[2c	4a	[2ff
8E-	.	.	.
8D	.	4cc	.
8C	.	.	.
4.D	8c]	4.f	8ff]
.	8F	.	8ee-
.	[4B-	.	[4dd
8E-	.	8g	.
=47	=47	=47	=47
2F	4B-]	8f	8dd]
.	.	8e-	8g
.	4A	8d	8f
.	.	8c	8e-
4.BB-	4B-	4d	8d
.	.	.	8f
.	4r	4r	8g
8C	.	.	8a
=48	=48	=48	=48
4.D	2r	8r	8b-
.	.	8A	8f
.	.	8B-	[4b-
8E-	.	8c	.
2F	2f	8d	8b-]
.	.	8c	8cc
.	.	4e-	8b-
.	.	.	8a
=49	=49	=49	=49
2G	4.B-	4d	8b-
.	.	.	8cc
.	.	8g	[4dd
.	8c	8a	.
4.F	4.d	8b-	8dd]
.	.	8cc	8ee-
.	.	[4dd	[4ff
8E-	8e-	.	.
=50	=50	=50	=50
[2D	2f	8dd]	8ff]
.	.	8cc	8ee-
.	.	8b-	8dd
.	.	8a	8cc
8D]	2g	8g	4.b-
8C	.	8a	.
8D	.	[4b-	.
8E-	.	.	8cc
=51	=51	=51	=51
[1F	4.f	8b-]	4dd
.	.	8g	.
.	.	[4a	4cc
.	8e-	.	.
.	[2d	8a]	[2ff
.	.	8f	.
.	.	8g	.
.	.	8a	.
=52	=52	=52	=52
1F_	8d]	[2b-	8ff]
.	8c	.	8een
.	8d	.	8ff
.	8en	.	8gg
.	[2f	8b-]	[2cc
.	.	8b-	.
.	.	8a	.
.	.	8g	.
=53	=53	=53	=53
4F]	4f]	4a	4cc]
4r	4r	4r	4ff
2r	4f	4r	4.cc
.	[4c	4cc	.
.	.	.	8dd
=54	=54	=54	=54
4c	8c]	4.g	4.ee-
.	8d	.	.
[4G	[4e-	.	.
.	.	8a	8ff
8G]	8e-]	4.b-	4gg
8A	8f	.	.
[4B-	4g	.	[4dd
.	.	8cc	.
=55	=55	=55	=55
8B-]	4.d	4dd	8dd]
8c	.	.	8een
4d	.	[4a	[4ff
.	8en	.	.
4.A	4.f	8a]	8ff]
.	.	8b-	8gg
.	.	[4cc	4aa
8B-	8g	.	.
=56	=56	=56	=56
4c	4a	4cc]	8ee
.	.	.	8ff
8G	8e	2b-	4gg
8A	8f	.	.
4B-	4g	.	8dd
.	.	.	8ee
8F	[4d	[4a	4ff
8G	.	.	.
=57	=57	=57	=57
[2A	8d]	8a]	2ee
.	8d	8bn	.
.	8c#	8a	.
.	8Bn	8g#	.
8A]	2c#	4a	4.aa
8Gn	.	.	.
8F	.	4r	.
8E	.	.	8gg
=58	=58	=58	=58
2D	8d	2r	4.ff
.	8A	.	.
.	[4cn	.	.
.	.	.	8ee
4r	8c]	2d	2dd
.	8A	.	.
[4G	8B-	.	.
.	8g	.	.
=59	=59	=59	=59
8G]	4e	4.a	2cc#
8E	.	.	.
[2.F	[4A	.	.
.	.	8g	.
.	8A]	4.f	4.dd
.	8A	.	.
.	8Bn	.	.
.	8c#	8e	8ee
=60	=60	=60	=60
8F]	4d	2d	[2ff
8E	.	.	.
8F	4r	.	.
8G	.	.	.
[2A	4r	2c#	8ff]
.	.	.	8gg
.	4a	.	8ff
.	.	.	8ee
=61	=61	=61	=61
8A]	4b-	4.d	2.dd
8F#	.	.	.
4G	4B-	.	.
.	.	8e	.
2D	8A	[2fn	.
.	8G	.	.
.	8A	.	[4a
.	8B-	.	.
=62	=62	=62	=62
2AA	[2c	8f]	4a]
.	.	8g	.
.	.	8f	4cc
.	.	8e-	.
2BB-	8c]	[2d	[2f
.	8c	.	.
.	8B-	.	.
.	8A	.	.
=63	=63	=63	=63
2BBn	[1G	2d_	8f]
.	.	.	8a
.	.	.	8g
.	.	.	8f
2C	.	8d]	[2e
.	.	8d	.
.	.	8c	.
.	.	8B-	.
=64	=64	=64	=64
2C#	8G]	2.A	2e_
.	8G	.	.
.	8F	.	.
.	8E	.	.
2D	2F	.	8e]
.	.	.	8d
.	.	4G#	8c#
.	.	.	8d
=65	=65	=65	=65
4AA	4E	4A	4c#
4r	4r	4r	4ee
4A	2r	4r	4.aa
[4d	.	4a	.
.	.	.	8gg
=66	=66	=66	=66
8d]	4d	4.dd	4.ff
8c	.	.	.
[4B-	[4g	.	.
.	.	8cc	8ee
8B-]	8g]	4.b-	4dd
8A	8f	.	.
4G	[4e	.	[4gg
.	.	8a	.
=67	=67	=67	=67
4.c	8e]	4g	8gg]
.	8d	.	8ff
.	4c	[4cc	[4ee
8B-	.	.	.
4.A	4.f	8cc]	8ee]
.	.	8b-	8dd
.	.	[4a	4cc
8G	8e	.	.
=68	=68	=68	=68
4F	2.d	8a]	8ff
.	.	8g	8ee
8B-	.	4f	4dd
8A	.	.	.
4G	.	8b-	8gg
.	.	8a	8ff
8c	[4e	4g	4ee
8B-	.	.	.
=69	=69	=69	=69
2A	8e]	8cc	2aa
.	8d	8b-	.
.	8e	4.cc	.
.	8f#	.	.
2G	2g	.	4.dd
.	.	8a	.
.	.	4b-	.
.	.	.	8ee
=70	=70	=70	=70
2D	2a	8a	4.ff
.	.	8cc#	.
.	.	8dd	.
.	.	8ee	8gg
8r	4.d	2ff	2aa
8g	.	.	.
8f	.	.	.
8e	8e	.	.
=71	=71	=71	=71
2.d	4.f	8r	2bb-
.	.	8aa	.
.	.	8gg	.
.	8g	8ff	.
.	2a	8ee	4.aa
.	.	8dd	.
4c#	.	4ee	.
.	.	.	8gg
=72	=72	=72	=72
8d	2b-	2dd	[2ff
8G	.	.	.
8A	.	.	.
8B-	.	.	.
8c	4.a	2r	8ff]
8C	.	.	8ee
8D	.	.	8ff
8E	8g	.	8gg
=73	=73	=73	=73
8F	[2f	1r	8aa
8G	.	.	8gg
8A	.	.	8ff
8F	.	.	8aa
4B-	8f]	.	[2dd
.	8e	.	.
8A	8f#	.	.
8G	8g	.	.
=74	=74	=74	=74
4F#	8a	1r	8dd]
.	8g	.	8b-
4A	8f#	.	2cc
.	8a	.	.
8B-	4d	.	.
8AA	.	.	.
8BB-	[4g	.	4b-
8C	.	.	.
=75	=75	=75	=75
8D	8g]	1r	[2a
8E	8c#	.	.
8Fn	8d	.	.
8D	8f	.	.
8G	[2B-	.	8a]
8F	.	.	8d
8E	.	.	8g
8G	.	.	8b-
=76	=76	=76	=76
8C#	8B-]	1r	2.e
8D	8A	.	.
8E	8G	.	.
8C#	8A	.	.
8D	2F	.	.
8Cn	.	.	.
8BB-	.	.	[4d
8D	.	.	.
=77	=77	=77	=77
8GG#	2E	1r	8d]
8AA	.	.	8c#
8BBn	.	.	8d
8GG#	.	.	8Bn
8AA	4.A	.	8c#
8Gn	.	.	8e
8F	.	.	[4a
8E	8G	.	.
=78	=78	=78	=78
[2D	4.F	2d	8a]
.	.	.	8b-
.	.	.	8a
.	8E	.	8g
8D]	2D	4.a	8f
8C	.	.	8e
4BB-	.	.	8d
.	.	8g	8e
=79	=79	=79	=79
8AA	2C#	4.f	8f
8BB-	.	.	8g
8AA	.	.	[4a
8GG	.	8e	.
4FF	4.D	2d	8a]
.	.	.	8g
4BB-	.	.	8f
.	8E	.	8g
=80	=80	=80	=80
2.AA	[2F	2c#	8a
.	.	.	8g
.	.	.	8f
.	.	.	8e
.	8F]	4.d	8d
.	8G	.	8b-
8BBn	8F	.	8a
8C#	8E	8e	8g
=81	=81	=81	=81
[2D	8D	[2f	8f
.	8F	.	8a
.	8G	.	8bn
.	8A	.	8cc#
8D]	[2B-	8f]	[2dd
8C#	.	8g	.
8D	.	8f	.
8E	.	8e	.
=82	=82	=82	=82
4F	8B-]	2.d	8dd]
.	8cn	.	8ee-
4F#	8B-	.	8dd
.	8A	.	8cc
[2G	8G	.	8b-
.	8B-	.	8dd
.	8c	4r	8een
.	8d	.	8ff#
=83	=83	=83	=83
8G]	2e-	8r	[2gg
8F#	.	8a	.
8G	.	8b-	.
8A	.	8cc	.
4.B-	4d	2dd	8gg]
.	.	.	8aa
.	[4g	.	8gg
8Bn	.	.	8ffn
=84	=84	=84	=84
8c#	4g]	[2a	8een
8A	.	.	8cc#
8d	8f	.	[2dd
8cn	8e	.	.
8Bn	8d	8a]	.
8A	8f	8a	.
[4B-	8e	[4g	8dd]
.	8d	.	8gg
=85	=85	=85	=85
8B-]	4e	8g]	4cc#
4A	.	8a	.
.	4f	4b-	2dd
8G#	.	.	.
4A	8e	4.a	.
.	8d	.	.
4AA	4e	.	4cc#
.	.	[8g	.
=86	=86	=86	=86
*^	*	*	*
2D	2A	2d]	8g]	2dd
.	.	.	8e	.
.	.	.	4f#	.
2r	4.D	8r	4.a	8r
.	.	8E	.	8dd
.	.	8F#	.	8ccn
.	8E	8G	8g	8b-
=87	=87	=87	=87	=87
2D	4.F#	8A	4.f#	8a
.	.	8G	.	8b-
.	.	8A	.	8a
.	8G	8B-	8e	8g
2r	2A	8c	2d	8f#
.	.	8B-	.	8g
.	.	8c	.	8f#
.	.	8F#	.	8a
=88	=88	=88	=88	=88
*	*	*	*^	*
2D	8G	2B-	2c#	2r	8e
.	8A	.	.	.	8d
.	8G	.	.	.	8e
.	8E	.	.	.	8g
2r	4.A	8A	4.d	8r	8f#
.	.	8G	.	[4.a	8a
.	.	8F#	.	.	[4ccn
.	8G	8E	8e	.	.
=89	=89	=89	=89	=89	=89
8r	[2D	[2F#	[2f#	2a_	2cc_
8C	.	.	.	.	.
8BB-	.	.	.	.	.
8AA	.	.	.	.	.
2GG	8D]	8F#]	8f#]	8a]	8cc]
.	8C#	8E	8g	8g	8b-
.	8D	8F#	8f#	8a	8dd
.	8E	8G	8e	8g	8cc#
=90	=90	=90	=90	=90	=90
1D;	1F#;	1A;	1d;	1f#;	1dd;
====	====	====	====	====	====
*-	*-	*-	*-	*-	*-
